Origami/24x24/apps/android-file-transfer.svg

<svg width="24" height="24" version="1" xmlns="http://www.w3.org/2000/svg">
 <rect transform="matrix(0,-1,-1,0,0,0)" x="-22" y="-22" width="20" height="20" rx="10" ry="10" style="fill:#a4c639"/>
 <path d="m9.300781 5.8007816c-0.02881-0.00687-0.05873-0.00212-0.08398 0.015625-0.051 0.033-0.06048 0.1056563-0.02148 0.1601563l0.6464851 0.9218751c-1.0275011 0.469-1.7497981 1.5625625-1.8417981 2.6015625h7c-0.09195-1.038474-0.811222-2.1341636-1.837891-2.6015625l0.646485-0.9218751c0.039-0.0545 0.02752-0.1251562-0.02149-0.1601563-0.051-0.035-0.123109-0.017391-0.162109 0.037109l-0.669922 0.9570314c-0.4435-0.1720001-0.935625-0.2675782-1.453125-0.2675782s-1.010125 0.095578-1.453125 0.2675782l-0.67187-0.957031c-0.0195-0.02725-0.04736-0.045859-0.07617-0.052734zm0.72461 1.9902345c0.215 0 0.386718 0.1699063 0.386718 0.3789063s-0.174218 0.3808593-0.386718 0.3808593c-0.2149999 0-0.3886719-0.1698593-0.3886719-0.3808593 0-0.209 0.174172-0.3789063 0.3886719-0.3789063zm3 0c0.213 0 0.386718 0.1699063 0.386718 0.3789063s-0.174218 0.3808593-0.386718 0.3808593c-0.215 0-0.388672-0.1698593-0.388672-0.3808593 0-0.209 0.174172-0.3789063 0.388672-0.3789063zm-5.023438 2.7089849v5.796874c0 0.344 0.16 0.703125 0.5 0.703125h1.498047v1.6875c0 0.449 0 0.8125 0.5 0.8125s0.501953-0.3635 0.501953-0.8125v-1.6875h1v1.6875c0 0.449-0.03902 0.8125 0.498047 0.8125 0.5 0 0.5-0.249564 0.5-0.8125v-1.6875h1.503906c0.338 0 0.5-0.35965 0.5-0.703125v-5.796874zm-1.478515 2e-3c-0.52289-0.001451-0.523438 0.377343-0.523438 0.843703v3.308594c0 0.46686 5.48e-4 0.84919 0.523438 0.847656 0.47711-0.0014 0.476562-0.381296 0.476562-0.847656v-3.308594c0-0.46686 5.48e-4 -0.84515-0.476562-0.84375zm9.955078 0c-0.478478-0.001451-0.478516 0.377343-0.478516 0.843703v3.308594c0 0.46686 3.8e-5 0.84894 0.478516 0.847656 0.521522-0.0014 0.521484-0.381296 0.521484-0.847656v-3.308594c0-0.46686 3.8e-5 -0.84515-0.521484-0.84375z" style="opacity:.2"/>
 <path d="m9.300781 5.3007816c-0.02881-0.00687-0.05873-0.00212-0.08398 0.015625-0.051 0.033-0.06048 0.1056563-0.02148 0.1601563l0.6464851 0.9218751c-1.0275011 0.469-1.7497981 1.5625625-1.8417981 2.6015625h7c-0.09195-1.038474-0.811222-2.1341636-1.837891-2.6015625l0.646485-0.9218751c0.039-0.0545 0.02752-0.1251562-0.02149-0.1601563-0.051-0.035-0.123109-0.017391-0.162109 0.037109l-0.669922 0.9570314c-0.4435-0.1720001-0.935625-0.2675782-1.453125-0.2675782s-1.010125 0.095578-1.453125 0.2675782l-0.67187-0.957031c-0.0195-0.02725-0.04736-0.045859-0.07617-0.052734zm0.72461 1.9902345c0.215 0 0.386718 0.1699063 0.386718 0.3789063s-0.174218 0.3808593-0.386718 0.3808593c-0.2149999 0-0.3886719-0.1698593-0.3886719-0.3808593 0-0.209 0.174172-0.3789063 0.3886719-0.3789063zm3 0c0.213 0 0.386718 0.1699063 0.386718 0.3789063s-0.174218 0.3808593-0.386718 0.3808593c-0.215 0-0.388672-0.1698593-0.388672-0.3808593 0-0.209 0.174172-0.3789063 0.388672-0.3789063zm-5.023438 2.7089849v5.796874c0 0.344 0.16 0.703125 0.5 0.703125h1.498047v1.6875c0 0.449 0 0.8125 0.5 0.8125s0.501953-0.3635 0.501953-0.8125v-1.6875h1v1.6875c0 0.449-0.03902 0.8125 0.498047 0.8125 0.5 0 0.5-0.249564 0.5-0.8125v-1.6875h1.503906c0.338 0 0.5-0.35965 0.5-0.703125v-5.796874zm-1.478515 2e-3c-0.52289-0.001451-0.523438 0.377343-0.523438 0.843703v3.308594c0 0.46686 5.48e-4 0.84919 0.523438 0.847656 0.47711-0.0014 0.476562-0.381296 0.476562-0.847656v-3.308594c0-0.46686 5.48e-4 -0.84515-0.476562-0.84375zm9.955078 0c-0.478478-0.001451-0.478516 0.377343-0.478516 0.843703v3.308594c0 0.46686 3.8e-5 0.84894 0.478516 0.847656 0.521522-0.0014 0.521484-0.381296 0.521484-0.847656v-3.308594c0-0.46686 3.8e-5 -0.84515-0.521484-0.84375z" style="fill:#ffffff"/>
 <path d="m12.001 2c-5.5401 0-10 4.46-10 10 0 0.084-2e-3 0.1665 0 0.25 0.1322-5.423 4.544-9.75 10-9.75s9.868 4.327 10 9.75c2e-3 -0.0835 0-0.166 0-0.25 0-5.54-4.46-10-10-10z" style="fill:#ffffff;opacity:.2"/>
 <path d="m2.0067 12.25c-0.00205 0.0835-0.00585 0.166-0.00585 0.25 0 5.54 4.46 10 10 10s10-4.46 10-10c0-0.084-4e-3 -0.1665-6e-3 -0.25-0.132 5.423-4.538 9.75-9.994 9.75s-9.862-4.327-9.994-9.75z" style="opacity:.2"/>
 <circle cx="18.001" cy="18" r="5" style="fill:#cc5e55"/>
 <g transform="matrix(0 .5 -.5 0 36.5 0)" style="fill:#ffffff">
  <path d="m39 38 5-4.5-5-4.5c4e-3 0 0 1.3333 0 2h-3v5h3z"/>
  <path d="m33 43-5-4.5 5-4.5c-4e-3 0 0 1.3333 0 2h3v5h-3z"/>
 </g>
</svg>

<svg xmlns="http://www.w3.org/2000/svg" width="24" height="24" version="1">
 <rect style="fill:#a4c639" width="20" height="20" x="-22" y="-22" rx="10" ry="10" transform="matrix(0,-1,-1,0,0,0)"/>
 <path style="opacity:0.2" d="m 9.300781,5.8007816 c -0.02881,-0.00687 -0.05873,-0.00212 -0.08398,0.015625 -0.051,0.033 -0.06048,0.1056563 -0.02148,0.1601563 L 9.8418061,6.898438 C 8.814305,7.367438 8.092008,8.4610005 8.000008,9.5000005 h 7 C 14.908058,8.4615265 14.188786,7.3658369 13.162117,6.898438 l 0.646485,-0.9218751 c 0.039,-0.0545 0.02752,-0.1251562 -0.02149,-0.1601563 -0.051,-0.035 -0.123109,-0.017391 -0.162109,0.037109 L 12.955081,6.810547 c -0.4435,-0.1720001 -0.935625,-0.2675782 -1.453125,-0.2675782 -0.5175,0 -1.010125,0.095578 -1.453125,0.2675782 L 9.376961,5.853516 C 9.357461,5.826266 9.329601,5.807657 9.300791,5.800782 Z m 0.72461,1.9902345 c 0.215,0 0.386718,0.1699063 0.386718,0.3789063 0,0.209 -0.174218,0.3808593 -0.386718,0.3808593 -0.2149999,0 -0.3886719,-0.1698593 -0.3886719,-0.3808593 0,-0.209 0.174172,-0.3789063 0.3886719,-0.3789063 z m 3,0 c 0.213,0 0.386718,0.1699063 0.386718,0.3789063 0,0.209 -0.174218,0.3808593 -0.386718,0.3808593 -0.215,0 -0.388672,-0.1698593 -0.388672,-0.3808593 0,-0.209 0.174172,-0.3789063 0.388672,-0.3789063 z M 8.001953,10.500001 v 5.796874 c 0,0.344 0.16,0.703125 0.5,0.703125 H 10 v 1.6875 c 0,0.449 0,0.8125 0.5,0.8125 0.5,0 0.501953,-0.3635 0.501953,-0.8125 V 17 h 1 v 1.6875 c 0,0.449 -0.03902,0.8125 0.498047,0.8125 0.5,0 0.5,-0.249564 0.5,-0.8125 V 17 h 1.503906 c 0.338,0 0.5,-0.35965 0.5,-0.703125 v -5.796874 z m -1.478515,0.002 C 6.000548,10.50055 6,10.879344 6,11.345704 v 3.308594 c 0,0.46686 5.48e-4,0.84919 0.523438,0.847656 C 7.000548,15.500554 7,15.120658 7,14.654298 v -3.308594 c 0,-0.46686 5.48e-4,-0.84515 -0.476562,-0.84375 z m 9.955078,0 C 16.000038,10.50055 16,10.879344 16,11.345704 v 3.308594 c 0,0.46686 3.8e-5,0.84894 0.478516,0.847656 C 17.000038,15.500554 17,15.120658 17,14.654298 v -3.308594 c 0,-0.46686 3.8e-5,-0.84515 -0.521484,-0.84375 z"/>
 <path style="fill:#ffffff" d="m 9.300781,5.3007816 c -0.02881,-0.00687 -0.05873,-0.00212 -0.08398,0.015625 -0.051,0.033 -0.06048,0.1056563 -0.02148,0.1601563 L 9.8418061,6.398438 C 8.814305,6.867438 8.092008,7.9610005 8.000008,9.0000005 h 7 C 14.908058,7.9615265 14.188786,6.8658369 13.162117,6.398438 l 0.646485,-0.9218751 c 0.039,-0.0545 0.02752,-0.1251562 -0.02149,-0.1601563 -0.051,-0.035 -0.123109,-0.017391 -0.162109,0.037109 L 12.955081,6.310547 c -0.4435,-0.1720001 -0.935625,-0.2675782 -1.453125,-0.2675782 -0.5175,0 -1.010125,0.095578 -1.453125,0.2675782 L 9.376961,5.353516 C 9.357461,5.326266 9.329601,5.307657 9.300791,5.300782 Z m 0.72461,1.9902345 c 0.215,0 0.386718,0.1699063 0.386718,0.3789063 0,0.209 -0.174218,0.3808593 -0.386718,0.3808593 -0.2149999,0 -0.3886719,-0.1698593 -0.3886719,-0.3808593 0,-0.209 0.174172,-0.3789063 0.3886719,-0.3789063 z m 3,0 c 0.213,0 0.386718,0.1699063 0.386718,0.3789063 0,0.209 -0.174218,0.3808593 -0.386718,0.3808593 -0.215,0 -0.388672,-0.1698593 -0.388672,-0.3808593 0,-0.209 0.174172,-0.3789063 0.388672,-0.3789063 z M 8.001953,10.000001 v 5.796874 c 0,0.344 0.16,0.703125 0.5,0.703125 H 10 v 1.6875 C 10,18.6365 10,19 10.5,19 11,19 11.001953,18.6365 11.001953,18.1875 V 16.5 h 1 v 1.6875 C 12.001953,18.6365 11.962933,19 12.5,19 13,19 13,18.750436 13,18.1875 V 16.5 h 1.503906 c 0.338,0 0.5,-0.35965 0.5,-0.703125 v -5.796874 z m -1.478515,0.002 C 6.000548,10.00055 6,10.379344 6,10.845704 v 3.308594 c 0,0.46686 5.48e-4,0.84919 0.523438,0.847656 C 7.000548,15.000554 7,14.620658 7,14.154298 v -3.308594 c 0,-0.46686 5.48e-4,-0.84515 -0.476562,-0.84375 z m 9.955078,0 C 16.000038,10.00055 16,10.379344 16,10.845704 v 3.308594 c 0,0.46686 3.8e-5,0.84894 0.478516,0.847656 C 17.000038,15.000554 17,14.620658 17,14.154298 v -3.308594 c 0,-0.46686 3.8e-5,-0.84515 -0.521484,-0.84375 z"/>
 <path style="opacity:0.2;fill:#ffffff" d="m 12.001,2 c -5.5401,0 -10,4.46 -10,10 0,0.084 -0.002,0.1665 0,0.25 0.1322,-5.423 4.544,-9.75 10,-9.75 5.456,0 9.868,4.327 10,9.75 0.002,-0.0835 0,-0.166 0,-0.25 0,-5.54 -4.46,-10 -10,-10 z"/>
 <path style="opacity:0.2" d="m 2.0067,12.25 c -0.00205,0.0835 -0.00585,0.166 -0.00585,0.25 0,5.54 4.46,10 10,10 5.54,0 10,-4.46 10,-10 0,-0.084 -0.004,-0.1665 -0.006,-0.25 -0.132,5.423 -4.538,9.75 -9.994,9.75 -5.456,0 -9.862,-4.327 -9.994,-9.75 z"/>
 <circle style="fill:#cc5e55" cx="18.001" cy="18" r="5"/>
 <g style="fill:#ffffff" transform="matrix(0,0.5,-0.5,0,36.5,0)">
  <path d="M 39,38 44,33.5 39,29 c 0.004,0 0,1.3333 0,2 h -3 v 5 h 3 z"/>
  <path d="M 33,43 28,38.5 33,34 c -0.004,0 0,1.3333 0,2 h 3 v 5 h -3 z"/>
 </g>
</svg>
